X: 10
T: Mowbray
T: for three
C: Richard Schweitzer, CC BY-NC-SA 3.0
P: AA BCDE
N: 
K: F major
M: 6/8
L: 1/8
P: A
"^Drone: C"F3 E3 | F3 D3 | G2F ED2 | C6 :| \
P: B
F3 G3 | A2A A2F | \
F2D EF2 | G6 || \
P: C
F2E F2G | A2A A2F | 
G2F ED2 | C6 || \
P: D
F3 E3 | F3 A3 | G2F GA2 | F6 || \
P: E
F3 E3 | F3 C3 | c2B AG2 | F6 |] 

